**kern	**kern	**dynam
*part1	*part1	*part1
*staff2	*staff1	*
*I"Piano	*	*
*clefF4	*clefG2	*
*k[b-]	*k[b-]	*
=1	=1	=1
*^	*	*
8rA	2CC 2C	8r	>
8GL 8B- 8e	.	8gL 8ee	.
8G; 8B- 8e	.	8g; 8dd	.
8GJ 8B- 8e	.	8gJ 8cc	.
=	=	=	=
!	!	!	!LO:DY:a
8rA	2FF 2F	8r	] pp
8AL 8c	.	8fL 8cc	.
8A 8c	.	8f 8b-	.
8AJ 8c	.	8fJ 8a	.
=	=	=	=
8rA	2F	8r	.
!	!	!LO:TX:a:B:t=a Tempo	!
8B-L 8d-X	.	8fL 8b-	.
8B- 8d-	.	8f 8cc	.
8B-J 8d-	.	8fJ 8dd-X	.
=	=	=	=
8rA	2F	8r	.
8B-L 8e	.	8gL 8dd-X	.
8B- 8e	.	8g 8cc	.
8B-J 8e	.	8gJ 8b-	.
=	=	=	=
8rA	2FF	8r	.
8CL 8A	.	8cL 8a	.
8C 8A	.	8c 8g	.
8CJ 8A	.	8cJ 8f	.
=	=	=	=
8rA	2FF 2F	8r	.
8cL 8e-X	.	8ccL 8ee-X 8ccc	.
8d-X 8f	.	8b- 8dd-X 8bb-	.
8e-J 8g-X	.	8aJ 8cc 8aa	.
=	=	=	=
8rA	2FF 2F	8r	.
8d-XL 8f	.	8b-L 8dd-X 8bb-	.
8c 8e-X	.	8cc 8ee-X 8ccc	.
8B-J 8d-	.	8dd-J 8ff 8ddd-X	.
=	=	=	=
8rA	2FF 2F	8r	.
8B-L 8d-X	.	8dd-XL 8een 8ddd-X	.
8c 8e	.	8cc 8ee 8ccc	.
8d-J 8e	.	8b-J 8dd- 8bb-	.
*v	*v	*	*
=	=	=
2F; 2c 2f	2a; 2cc 2aa	.
=:|!	=:|!	=:|!
*-	*-	*-
!!!system-decoration: {(s1,s2)}
